X: 1
T: Keeney's Farewell
M: 4/4
L: 1/8
R: reel
K: Dmaj
FDDF GEFA | ~B3d efdc | B2GB ABDE | FDAF E2DE | 
FDDF GEFA | ~B3d efdc | B2GB ABdf |1 gefe d2AG :|2gefe d3e||
fddf ~g2ag | fdAF ~G2de | fddf geag | fgef d2eg | 
fddf ~g2ag | fdAF Gddc | B2GB ABde |1 fgef d3e :|2 faef d2AG ||
